icon/lg/quobyte.svg

<?xml version="1.0" encoding="UTF-8" standalone="no"?>
<svg viewBox="0 0 256 257" version="1.1" xmlns="http://www.w3.org/2000/svg" preserveAspectRatio="xMidYMid" height="1em" width="1em">
  <g>
    <path d="M159.532741,163.549979 C155.728019,167.76201 151.020227,171.059318 145.761453,173.195301 C139.948374,175.511685 133.734084,176.65383 127.477254,176.555815 C121.205225,176.651111 114.975921,175.509174 109.145534,173.195301 C103.857493,171.061861 99.1176241,167.765244 95.2775096,163.549979 C91.3162579,159.095832 88.325152,153.866165 86.4943747,148.193495 C84.3583843,141.576866 83.32065,134.655033 83.4223891,127.702919 C83.3206604,120.750244 84.3583921,113.827848 86.4943747,107.210627 C88.3327644,101.527091 91.3226538,96.2833699 95.2775096,91.8066101 C99.106836,87.5670969 103.848679,84.2522708 109.145534,82.1120495 C114.97627,79.7995791 121.205403,78.6582602 127.477243,78.7532635 C133.733891,78.6555311 139.948019,79.7970583 145.761453,82.1120495 C151.02905,84.25488 155.738809,87.5704005 159.532741,91.8065985 C163.456343,96.2898164 166.413887,101.533554 168.220821,107.210604 C170.323056,113.834553 171.343739,120.754079 171.243591,127.702896 C171.343756,134.651152 170.32307,141.570116 168.220821,148.193472 C166.421469,153.859592 163.462725,159.089283 159.532741,163.549979 L159.532741,163.549979 Z M127.971142,0.000338607305 C79.0661933,0.018102707 34.4443734,27.8970521 12.9844226,71.8420731 C-8.47552813,115.787094 -3.02353739,168.118905 27.0337495,206.696798 C57.0910363,245.274692 106.501184,263.357278 154.359592,253.29412 L135.786853,232.720539 C133.205381,232.912144 130.601829,233.018922 127.971131,233.018922 C76.5809378,233.10725 32.6507534,196.048165 24.0802831,145.377594 C15.5098128,94.7070232 44.8085936,45.2619197 93.3692064,28.4444698 C141.929819,11.62702 195.533131,32.3615759 220.136111,77.4797886 C244.73909,122.598001 233.137689,178.888714 192.699863,210.602149 L170.099577,185.568094 C174.330893,182.525604 178.164741,178.965443 181.511718,174.970631 C184.983641,170.819661 187.933372,166.25855 190.294853,161.389442 C192.741035,156.325815 194.593143,150.996168 195.814233,145.50681 C197.112325,139.661762 197.755578,133.690352 197.732105,127.702943 C197.825936,118.044765 196.100346,108.455278 192.645523,99.4356662 C189.441359,91.0622125 184.576926,83.423215 178.344712,76.9779921 C172.046417,70.5715514 164.501295,65.5247135 156.175566,62.1493274 C147.059728,58.4750846 137.30489,56.6480364 127.477243,56.7742284 C117.638858,56.6505666 107.871994,58.4606977 98.7313508,62.1018173 C90.3626134,65.4504586 82.780123,70.49987 76.4637638,76.930482 C70.2113008,83.3871592 65.3304179,91.0425898 62.1151042,99.4356662 C58.6596904,108.455109 56.9341343,118.044719 57.0286853,127.702943 C56.9341311,137.360601 58.6596909,146.949642 62.1151042,155.968479 C65.3296003,164.361977 70.2105866,172.017572 76.4637755,178.473687 C82.7805081,184.904261 90.3628664,189.954157 98.7313625,193.304033 C107.872352,196.94378 117.639052,198.753306 127.477254,198.629929 C131.055036,198.63749 134.629541,198.41299 138.178261,197.95784 C141.563598,197.517858 144.914527,196.844722 148.207156,195.943232 L148.242873,195.980595 L172.710065,222.985112 L180.140522,231.18576 L188.74207,240.714146 C188.750006,240.711142 188.757475,240.707026 188.764254,240.701921 C240.3585,212.856375 266.446678,153.523878 252.089902,96.6800247 C237.733127,39.8361712 186.600179,0.00703842318 127.971341,0 L127.971142,0.000338607305 Z" fill="#274E85"/>
  </g>
</svg>

<svg width="256" height="257" xmlns="http://www.w3.org/2000/svg" preserveAspectRatio="xMidYMid"><path d="M159.533 163.55a37.651 37.651 0 0 1-13.772 9.645 47.389 47.389 0 0 1-18.284 3.36 47.73 47.73 0 0 1-18.331-3.36 37.985 37.985 0 0 1-13.868-9.645 42.965 42.965 0 0 1-8.784-15.357 63.666 63.666 0 0 1-3.072-20.49 63.677 63.677 0 0 1 3.072-20.492 43.476 43.476 0 0 1 8.784-15.404 37.74 37.74 0 0 1 13.868-9.695 47.762 47.762 0 0 1 18.331-3.359 47.42 47.42 0 0 1 18.284 3.359 37.41 37.41 0 0 1 13.772 9.695 43.357 43.357 0 0 1 8.688 15.404 64.663 64.663 0 0 1 3.023 20.492c.1 6.948-.92 13.867-3.023 20.49a42.848 42.848 0 0 1-8.688 15.357ZM127.97 0C79.066.018 34.444 27.897 12.984 71.842c-21.46 43.945-16.008 96.277 14.05 134.855 30.057 38.578 79.467 56.66 127.326 46.597l-18.573-20.573c-2.582.191-5.185.298-7.816.298-51.39.088-95.32-36.97-103.89-87.641C15.51 94.707 44.808 45.262 93.368 28.444c48.56-16.817 102.164 3.918 126.767 49.036 24.603 45.118 13.002 101.409-27.436 133.122l-22.6-25.034a62.453 62.453 0 0 0 11.412-10.597 66.186 66.186 0 0 0 8.783-13.582 72.906 72.906 0 0 0 5.52-15.882 80.662 80.662 0 0 0 1.917-17.804 76.937 76.937 0 0 0-5.086-28.267 66.494 66.494 0 0 0-14.301-22.458 65.709 65.709 0 0 0-22.17-14.829 74.218 74.218 0 0 0-28.698-5.375 75.127 75.127 0 0 0-28.746 5.328A65.126 65.126 0 0 0 76.464 76.93a66.6 66.6 0 0 0-14.349 22.506 76.91 76.91 0 0 0-5.086 28.267 76.9 76.9 0 0 0 5.086 28.265 66.567 66.567 0 0 0 14.349 22.506 65.155 65.155 0 0 0 22.267 14.83 75.158 75.158 0 0 0 28.746 5.326 82.743 82.743 0 0 0 10.701-.672 74.184 74.184 0 0 0 10.03-2.015l.035.038 24.467 27.004 7.43 8.2 8.602 9.53a.09.09 0 0 0 .022-.013c51.594-27.846 77.683-87.178 63.326-144.022C237.733 39.836 186.6.007 127.97 0Z" fill="#274E85"/></svg>
